src/assets/icons/logout.svg

<svg xmlns="http://www.w3.org/2000/svg" width="24" height="24" fill="none"><path fill="#161819" d="M16.8 2h-2.6C11 2 9 4 9 7.2v4.05h6.25c.41 0 .75.34.75.75s-.34.75-.75.75H9v4.05C9 20 11 22 14.2 22h2.59c3.2 0 5.2-2 5.2-5.2V7.2C22 4 20 2 16.8 2M4.56 11.25l2.07-2.07c.15-.15.22-.34.22-.53s-.07-.39-.22-.53a.754.754 0 0 0-1.06 0l-3.35 3.35c-.29.29-.29.77 0 1.06l3.35 3.35c.29.29.77.29 1.06 0s.29-.77 0-1.06l-2.07-2.07H9v-1.5z"/></svg>

<svg width="24" height="24" viewBox="0 0 24 24" fill="none" xmlns="http://www.w3.org/2000/svg">
<path d="M16.8 2H14.2C11 2 9 4 9 7.2V11.25H15.25C15.66 11.25 16 11.59 16 12C16 12.41 15.66 12.75 15.25 12.75H9V16.8C9 20 11 22 14.2 22H16.79C19.99 22 21.99 20 21.99 16.8V7.2C22 4 20 2 16.8 2Z" fill="#161819"/>
<path d="M4.56 11.25L6.63 9.18003C6.78 9.03003 6.85 8.84003 6.85 8.65003C6.85 8.46003 6.78 8.26003 6.63 8.12003C6.34 7.83003 5.86 7.83003 5.57 8.12003L2.22 11.47C1.93 11.76 1.93 12.24 2.22 12.53L5.57 15.88C5.86 16.17 6.34 16.17 6.63 15.88C6.92 15.59 6.92 15.11 6.63 14.82L4.56 12.75H9V11.25H4.56Z" fill="#161819"/>
</svg>
